docs/images/icons/insta.svg

<svg width="18" height="18" viewBox="0 0 18 18" fill="none" xmlns="http://www.w3.org/2000/svg">
<path d="M5.33696 0.333252C2.48624 0.333252 0.166504 2.65299 0.166504 5.50371V12.6628C0.166504 15.5135 2.48624 17.8333 5.33696 17.8333H12.496C15.3468 17.8333 17.6665 15.5135 17.6665 12.6628V5.50371C17.6665 2.65299 15.3468 0.333252 12.496 0.333252H5.33696ZM5.33696 1.12871H12.496C14.9168 1.12871 16.871 3.08295 16.871 5.50371V12.6628C16.871 15.0836 14.9168 17.0378 12.496 17.0378H5.33696C2.9162 17.0378 0.961958 15.0836 0.961958 12.6628V5.50371C0.961958 3.08295 2.9162 1.12871 5.33696 1.12871ZM13.6892 3.51507C13.4783 3.51507 13.2759 3.59888 13.1268 3.74805C12.9776 3.89723 12.8938 4.09956 12.8938 4.31052C12.8938 4.52149 12.9776 4.72382 13.1268 4.873C13.2759 5.02217 13.4783 5.10598 13.6892 5.10598C13.9002 5.10598 14.1025 5.02217 14.2517 4.873C14.4009 4.72382 14.4847 4.52149 14.4847 4.31052C14.4847 4.09956 14.4009 3.89723 14.2517 3.74805C14.1025 3.59888 13.9002 3.51507 13.6892 3.51507ZM8.9165 4.70825C6.50497 4.70825 4.5415 6.67172 4.5415 9.08325C4.5415 11.4948 6.50497 13.4583 8.9165 13.4583C11.328 13.4583 13.2915 11.4948 13.2915 9.08325C13.2915 6.67172 11.328 4.70825 8.9165 4.70825ZM8.9165 5.50371C10.8981 5.50371 12.496 7.10161 12.496 9.08325C12.496 11.0649 10.8981 12.6628 8.9165 12.6628C6.93486 12.6628 5.33696 11.0649 5.33696 9.08325C5.33696 7.10161 6.93486 5.50371 8.9165 5.50371Z" fill="#333333"/>
</svg>

<svg width="18" height="18" fill="none" xmlns="http://www.w3.org/2000/svg"><path d="M5.337.333c-2.85 0-5.17 2.32-5.17 5.17v7.16c0 2.85 2.32 5.17 5.17 5.17h7.159c2.85 0 5.17-2.32 5.17-5.17v-7.16c0-2.85-2.32-5.17-5.17-5.17H5.337Zm0 .796h7.159a4.37 4.37 0 0 1 4.375 4.375v7.159a4.37 4.37 0 0 1-4.375 4.375H5.337a4.37 4.37 0 0 1-4.375-4.375v-7.16A4.37 4.37 0 0 1 5.337 1.13Zm8.352 2.386a.795.795 0 1 0 0 1.59.795.795 0 0 0 0-1.59ZM8.916 4.708a4.381 4.381 0 0 0-4.375 4.375 4.381 4.381 0 0 0 4.375 4.375 4.381 4.381 0 0 0 4.375-4.375 4.381 4.381 0 0 0-4.375-4.375Zm0 .796a3.574 3.574 0 0 1 3.58 3.58 3.574 3.574 0 0 1-3.58 3.579 3.574 3.574 0 0 1-3.579-3.58 3.574 3.574 0 0 1 3.58-3.58Z" fill="#333"/></svg>
